X: 1
T: Ginley's
M: 4/4
L: 1/8
R: reel
K: Gmaj
|:GEBE E2EF|~G3B AED2|GEBE GA (3Bcd|(3efg fg ed (3Bcd|
|GEEF G2BE|~G3B AFD2|G2BG FGAF||1 EFGA BEEF:|2 EFGA BEef||
|:gbef gbeg|fdd^c dfaf|~g3z gfeg|fedB ~e3z|
geBA ^GA (3Bcd|^cdeg fdd2|(3gab eg fedB||1 dBAF ~e3f:|2 dBAF ~E3z||
